X:1
T:Talk with us, Lord, thyself reveal
T:Talk with us, Lord, thyself reveal - Axbridge (Thomas Clark)
T:Edmund Gooch
T:Edmund Gooch
C:Thomas Clark
Z:p1, A Sett of Psalm &
Z:Hymn Tunes,
Z:London, [1805]
Z:Edmund Gooch
%%score [ 1 2 3 4 ]
L:1/8
M:4/4
K:F
V:1 treble nm="Air" snm="S."
V:2 treble nm="[Alto]" snm="A."
V:3 treble-8 transpose=-12 nm="Tenor" snm="T."
V:4 bass nm="[Bass]" snm="B."
V:1
 F4 | (A4 G4) F4 | c8 (d2 e2) | (f4 B4) A4 | G8 G4 | (A3 B c4) A4 | (B4 A4) G4 | F8 |: c4 | %9
w: Here,|then, _ my|God, vouch- *|safe _ to|stay, And|bid _ _ my|heart _ re-|joice;|My|
w: Talk|with _ us,|Lord, thy- *|self _ re-|veal While|here _ _ o’er|earth _ we|rove;|Speak|
w: With|thee _ con-|vers- ing, _|we _ for-|get All|time _ _ and|toil _ and|care;|La-|
 (d4 c4) (d2 e2) | (f4 e4) d4 | (c4 d2 c2) (B2 A2) | (A4 G4)!p! G4 | (A3 B c4) A4 | B8 c4 | %15
w: bound- * ing _|heart _ shall|own _ _ thy _|sway, _ And|e- * * cho|to thy|
w: to _ our _|hearts, _ and|let _ _ us _|feel _ The|kind- * * ling|of thy|
w: bour _ is _|rest, _ and|pain _ _ is _|sweet, _ If|thou, _ _ my|God, art|
 !fermata!d8!f! c4 | (f4 e2 d2) (c2 B2) | (A3 B A4) G4 | F8 :| %19
w: voice, and|e- * * cho _|to _ _ thy|voice.|
w: love, the|kind- * * ling _|of _ _ thy|love.|
w: here, if|thou, _ _ my _|God, _ _ art|here.|
V:2
 F4 | (F4 C4) D4 | E8 G4 | (F2 C2 D2 E2) F4 | E8 E4 | F8 F4 | F8 E4 | F8 |: F4 | F8 G4 | %10
w: Here,|then, _ my|God, vouch-|safe _ _ _ to|stay, And|bid my|heart re-|joice;|My|bound- ing|
w: Talk|with _ us,|Lord, thy-|self _ _ _ re-|veal While|here o’er|earth we|rove;|Speak|to our|
w: With|thee _ con-|vers- ing,|we _ _ _ for-|get All|time and|toil and|care;|La-|bour is|
 (A4 G4) F4 | F8 (DE F2) | (F4 E4) z4 | z12 | z12 | !fermata!z8 F4 | (A4 G4) F4 | F8 E4 | F8 :| %19
w: heart _ shall|own thy _ _|sway, _|||And|e- * cho|to thy|voice.|
w: hearts, _ and|let us _ _|feel _|||The|kind- * ling|of thy|love.|
w: rest, _ and|pain is _ _|sweet, _|||If|thou, _ my|God, art|here.|
V:3
 A4 | c8 =B4 | c8 G4 | (A4 B4) c4 | c8 c4 | (c3 B A4) c4 | (d4 c4) c4 | A8 |: A4 | (F3 G A4) B4 | %10
w: Here,|then, my|God, vouch-|safe _ to|stay, And|bid _ _ my|heart _ re-|joice;|My|bound- * * ing|
w: Talk|with us,|Lord, thy-|self _ re-|veal While|here _ _ o’er|earth _ we|rove;|Speak|to _ _ our|
w: With|thee con-|vers- ing,|we _ for-|get All|time _ _ and|toil _ and|care;|La-|bour _ _ is|
 c8 B4 | (A4 B2 A2) (G2 F2) | c8 z4 | z12 | z12 | !fermata!z8 A4 | (c4 B4) (A2 d2) | c8 B4 | A8 :| %19
w: heart shall|own _ _ thy _|sway,|||And|e- * cho _|to thy|voice.|
w: hearts, and|let _ _ us _|feel|||The|kind- * ling _|of thy|love.|
w: rest, and|pain _ _ is _|sweet,|||If|thou, _ my _|God, art|here.|
V:4
 F,4 | (F,4"^6" E,4)"^¿" D,4 | C,8 B,4 |"^6" (A,4"^5""^6" G,4) F,4 | C,8 C,4 | F,8 F,4 | %6
w: Here,|then, _ my|God, vouch-|safe _ to|stay, And|bid my|
w: Talk|with _ us,|Lord, thy-|self _ re-|veal While|here o’er|
w: With|thee _ con-|vers- ing,|we _ for-|get All|time and|
 (B,,4"^64" C,4)"^53" C,4 | F,8 |: F,4 | (B,4"^6" A,4)"^5""^6" G,4 | (F,4 C,4)"^6" D,4 | %11
w: heart _ re-|joice;|My|bound- * ing|heart _ shall|
w: earth _ we|rove;|Speak|to _ our|hearts, _ and|
w: toil _ and|care;|La-|bour _ is|rest, _ and|
 F,8"^6""^5" B,,4 |"^64""^53" C,8!p! C,4 | %13
w: own thy|sway, And|
w: let us|feel The|
w: pain is|sweet, If|
"^The order of staves in the source is Tenor - [Alto] - Air - [Bass], with the alto part notated in the treble clef an octaveabove the sounding pitch.The first verse only of the text is given in the source: subsequent verses have been added editorially." F,8 F,4 | %14
w: e- cho|
w: kind- ling|
w: thou, my|
"^6" D,8 C,4 | !fermata!B,,8!f! F,4 | (F,4"^6""^5" G,4)"^6" (A,2 B,2) |"^64" C8"^7" C,4 | F,8 :| %19
w: to thy|voice, and|e- * cho _|to thy|voice.|
w: of thy|love, the|kind- * ling _|of thy|love.|
w: God, art|here, if|thou, _ my _|God, art|here.|

